X:35
T:King George the IV    [(1st) King's Set]
R:Strathspey
O:Scotland
M:4/4
C:Trad.-Ashley MacIsaac, John Allan Cameron, Buddy MacMaster
K:C
A|E/A,A,>B C>B,A,>A|E/A,A,>C, B,>A,G,>B,|E/A,A,>B, C>DE>C|
B/DG>E D/2C/2B,/2A,/2 G,B,:|^c>eA>e c/e d/2c/2B/2A/2|
^c>eA>e d/2c/2B/2A/2 G/B|^c>eA>e c>eA>^f|
g>g a/2g/2^f/2e/2 d/2c/2B/2A/2 BG|^c>eA>e c>e d/2c/2B/2A/2|
^c>eA>e d/2c/2B/2A/2 G/B|c/eBd A/BE/A|G>AG/E D/2C/2B,/2A,/2 G,B,||
